assets/img/facebook.svg

<?xml version="1.0" encoding="UTF-8"?>
<svg width="11px" height="21px" viewBox="0 0 11 21" version="1.1" xmlns="http://www.w3.org/2000/svg" xmlns:xlink="http://www.w3.org/1999/xlink">
    <!-- Generator: Sketch 46.2 (44496) - http://www.bohemiancoding.com/sketch -->
    <title>Shape</title>
    <desc>Created with Sketch.</desc>
    <defs></defs>
    <g id="Landing" stroke="none" stroke-width="1" fill="none" fill-rule="evenodd" opacity="0.300000012">
        <g id="1440" transform="translate(-137.000000, -3828.000000)" fill-rule="nonzero" fill="#4C5661">
            <g id="//-footer" transform="translate(0.000000, 3156.000000)">
                <g id="::-social" transform="translate(137.000000, 672.000000)">
                    <g id="Shape">
                        <path d="M7.21553001,20.1361251 L7.21553001,10.9510229 L10.2986229,10.9510229 L10.7602068,7.37143806 L7.21553001,7.37143806 L7.21553001,5.08598013 C7.21553001,4.04962842 7.50335146,3.34329901 8.98961867,3.34329901 L10.8851563,3.34242388 L10.8851563,0.140896381 C10.557176,0.0974314519 9.43204692,0 8.12304272,0 C5.39010022,0 3.51906629,1.66810036 3.51906629,4.73164858 L3.51906629,7.3715353 L0.428,7.3715353 L0.428,10.9511202 L3.51896905,10.9511202 L3.51896905,20.1362223 L7.21553001,20.1361251 Z"></path>
                    </g>
                </g>
            </g>
        </g>
    </g>
</svg>

<svg width="11" height="21" viewBox="0 0 11 21" xmlns="http://www.w3.org/2000/svg"><title>Shape</title><path d="M7.216 20.136v-9.185h3.083l.461-3.58H7.216V5.086c0-1.036.287-1.743 1.774-1.743h1.895V.14A25.404 25.404 0 0 0 8.123 0C5.39 0 3.519 1.668 3.519 4.732v2.64H.428v3.58h3.091v9.184h3.697z" fill-rule="nonzero" fill="#4C5661" opacity=".3"/></svg>
